X:518
T:Mueira
R:Mueira
C:Tradicional
S:Msica Tradicional Asturiana, (C) Tello & Tito. Asturies, 2001.
S:http://pagina.de/MusTradAst <telloytito@asturies.org>
N:transcrito a Ceferino Traviesas, (Caliu-Casu)
A:Asturies
O:Caliu (Casu)
Z:E. Zamora
M:6/8
L:1/8
Q:3/8=88
K:G
G2 B|: ded cBc|d2 B G2 B|ded cBA|[1 B2 G GAB :|[2 G3 ABc|
|: ded cBc|d2 B G2 B|ded cBA|[1 B3 G2 B :|[2 G3 gfe|
|d2 c d2 e|d2 B G2 B|ded cBc|d2 d gfe|
|d2 c d2 e|d2 B G2 B|ded cBA|G3 GAB|
|ccc {d}cBc|d2 B GAB|ccc {d}cBA|B2 G GAB|
|cdc {d}cBc|d2 B G2 B|ded cBA|G3 ABc|
|cdc cBc|d2 B G2 B|ded cBA|B3 G2 B|
|ded cBA|G3 gfe|d2 c d2 e|d2 B G2 B|
|ded cBc|d3 d3|d3 gfe|d2 c d2 e|
|d2 B G2 B|ded cBA|G3 GAB|cdc cBc|
|d2 B GAB|cdc cBA|B2 G GAB|cdc cBc|
|d2 B G2 B|ded cBA|G3 gfe|d2 c d2 e|
|d2 B G2 B|ded cBc|d3 gfe|d2 c d2 e|
|d2 B G2 B|ded cBA|G3 GAB|ced cBA|
|G3 ABc|ded cBA|B3 ABc|ded cBA|
|G3 ABc|ded cBc|d3 ABc|ded cBA|
|G3 d3|e3 f3|g6|
